X:1
T:The Quaker's Wife
N:from the playing of Sally Sloane
Z:Ian Hayden 2017
L:1/8
M:6/8
K:D
E|ABc E2A|d2c B2A|ABc E2E|F3 A2E|
|ABc E2A|d2c B2A|ABc E2E|F3 A2A|]
|A2c e2A|d2f e3|A2c e2A|dcd B3|
|f2d Bcd|e2c A2E|ABc E2E|F3 A3|]
T:alternative B part:
|A2c e2c|f3 e3|A3 e2c|d2c B3|
|f2d Bcd|e2c A2E|ABc E2E|F3 A3|]
